src/assets/img/VISA & MasterCard.svg

<svg width="24" height="24" viewBox="0 0 24 24" fill="none" xmlns="http://www.w3.org/2000/svg">
<path d="M0 12C0 5.37258 5.37258 0 12 0C18.6274 0 24 5.37258 24 12C24 18.6274 18.6274 24 12 24C5.37258 24 0 18.6274 0 12Z" fill="white"/>
<path d="M13.6225 13.0895H10.3777V18.9206H13.6225V13.0895Z" fill="#FF5F00"/>
<path d="M10.5837 16.0053C10.5832 15.4437 10.7104 14.8894 10.9558 14.3842C11.2012 13.8791 11.5583 13.4364 12.0001 13.0897C11.453 12.6597 10.796 12.3923 10.1041 12.3181C9.41229 12.2438 8.71349 12.3657 8.08764 12.6698C7.46178 12.9739 6.93411 13.448 6.56494 14.0378C6.19577 14.6276 6 15.3094 6 16.0053C6 16.7011 6.19577 17.3829 6.56494 17.9727C6.93411 18.5626 7.46178 19.0366 8.08764 19.3407C8.71349 19.6448 9.41229 19.7667 10.1041 19.6925C10.796 19.6182 11.453 19.3508 12.0001 18.9208C11.5583 18.5741 11.2012 18.1314 10.9558 17.6263C10.7104 17.1212 10.5832 16.5668 10.5837 16.0053Z" fill="#EB001B"/>
<path d="M18 16.0053C18 16.7011 17.8043 17.3829 17.4351 17.9727C17.066 18.5625 16.5383 19.0366 15.9125 19.3407C15.2866 19.6448 14.5879 19.7667 13.896 19.6925C13.2042 19.6182 12.5471 19.3508 12.0001 18.9208C12.4415 18.5737 12.7983 18.131 13.0437 17.626C13.289 17.1209 13.4165 16.5668 13.4165 16.0053C13.4165 15.4438 13.289 14.8896 13.0437 14.3846C12.7983 13.8795 12.4415 13.4368 12.0001 13.0897C12.5471 12.6597 13.2042 12.3923 13.896 12.3181C14.5879 12.2438 15.2866 12.3657 15.9125 12.6698C16.5383 12.9739 17.066 13.448 17.4351 14.0378C17.8043 14.6277 18 15.3094 18 16.0053Z" fill="#F79E1B"/>
<path d="M17.6462 18.3031V18.1837H17.6944V18.1594H17.5718V18.1837H17.6199V18.3031H17.6462ZM17.8842 18.3031V18.1591H17.8466L17.8034 18.2582L17.7602 18.1591H17.7226V18.3031H17.7491V18.1945L17.7897 18.2881H17.8172L17.8577 18.1943V18.3031H17.8842Z" fill="#F79E1B"/>
<path d="M11.427 6.81033L10.4249 11.1831H9.21276L10.215 6.81033H11.427ZM16.5264 9.6339L17.1643 7.99182L17.5315 9.6339H16.5264ZM17.8792 11.1831H19L18.0208 6.81033H16.987C16.754 6.81033 16.5576 6.93642 16.4707 7.13086L14.652 11.1831H15.9249L16.1776 10.5301H17.7324L17.8792 11.1831ZM14.7151 9.75556C14.7204 8.6015 13.0058 8.53757 13.0173 8.02192C13.0209 7.86525 13.1811 7.69834 13.5312 7.65566C13.7047 7.63481 14.1837 7.61789 14.7266 7.85138L14.9389 6.92373C14.6473 6.82528 14.2721 6.73047 13.8052 6.73047C12.6069 6.73047 11.764 7.32451 11.7573 8.17584C11.7496 8.80538 12.3594 9.1564 12.8179 9.36608C13.2906 9.58039 13.449 9.71779 13.4467 9.90928C13.4434 10.2027 13.0697 10.3326 12.7218 10.3375C12.1121 10.3464 11.7586 10.1837 11.477 10.0611L11.257 11.0198C11.5406 11.1409 12.0633 11.2464 12.6045 11.2518C13.8784 11.2518 14.7113 10.6647 14.7151 9.75556ZM9.69506 6.81033L7.73116 11.1831H6.4501L5.48359 7.69333C5.425 7.47872 5.3739 7.39985 5.19571 7.30917C4.90423 7.16144 4.42309 7.02326 4 6.9373L4.02866 6.81033H6.09109C6.35379 6.81033 6.59015 6.97349 6.65032 7.25596L7.16087 9.78654L8.4217 6.81033H9.69506Z" fill="#1434CB"/>
</svg>

<svg xmlns="http://www.w3.org/2000/svg" width="24" height="24" fill="none"><path fill="#fff" d="M0 12C0 5.373 5.373 0 12 0s12 5.373 12 12-5.373 12-12 12S0 18.627 0 12Z"/><path fill="#FF5F00" d="M13.623 13.09h-3.245v5.83h3.245v-5.83Z"/><path fill="#EB001B" d="M10.584 16.005A3.702 3.702 0 0 1 12 13.09a3.708 3.708 0 1 0 0 5.83 3.702 3.702 0 0 1-1.416-2.915Z"/><path fill="#F79E1B" d="M18 16.005a3.708 3.708 0 0 1-6 2.916 3.71 3.71 0 0 0 0-5.831 3.708 3.708 0 0 1 6 2.915ZM17.646 18.303v-.12h.048v-.024h-.122v.025h.048v.12h.026Zm.238 0v-.144h-.037l-.044.1-.043-.1h-.037v.144h.026v-.108l.04.093h.028l.04-.094v.11h.027Z"/><path fill="#1434CB" d="m11.427 6.81-1.002 4.373H9.213l1.002-4.373h1.212Zm5.1 2.824.637-1.642.367 1.642h-1.005Zm1.352 1.55H19l-.98-4.374h-1.033a.553.553 0 0 0-.516.32l-1.819 4.053h1.273l.253-.653h1.554l.147.653Zm-3.164-1.428c.005-1.155-1.71-1.218-1.698-1.734.004-.157.164-.324.514-.366.174-.021.653-.038 1.196.195l.212-.927a3.473 3.473 0 0 0-1.134-.194c-1.198 0-2.041.595-2.048 1.446-.007.63.602.98 1.06 1.19.474.214.632.352.63.543-.004.294-.377.424-.725.428-.61.01-.963-.153-1.245-.276l-.22.959c.284.12.806.226 1.348.232 1.273 0 2.106-.587 2.11-1.496ZM9.695 6.81l-1.964 4.373h-1.28l-.967-3.49c-.059-.214-.11-.293-.288-.384-.292-.148-.773-.286-1.196-.372l.029-.127H6.09c.263 0 .5.163.56.446l.51 2.53L8.42 6.81h1.274Z"/></svg>
